icon-themes/sifr_svg/vcl/res/errorbox.svg

<svg viewBox="0 0 32 32" xmlns="http://www.w3.org/2000/svg"><path d="m16 3a13 13 0 0 0 -13 13 13 13 0 0 0 13 13 13 13 0 0 0 13-13 13 13 0 0 0 -13-13zm-7 4.484375a1.5 1.5 0 0 1 1.076172.4550781l5.943359 5.9433589 5.941406-5.9433589a1.5 1.5 0 0 1 1.076172-.4550781 1.5 1.5 0 0 1 1.044922 2.576172l-5.941406 5.943359 5.935547 5.935547a1.5 1.5 0 1 1 -2.121094 2.121094l-5.951172-5.935547-5.9375 5.935547a1.5 1.5 0 1 1 -2.1210935-2.121094l5.9374995-5.939453-5.982812-5.939453a1.5 1.5 0 0 1 1.1-2.576172z" fill="#555753"/></svg>

<svg xmlns="http://www.w3.org/2000/svg" viewBox="0 0 32 32">
  <path
     style="fill:#555753"
     d="M 16,3 A 13,13 0 0 0 3,16 13,13 0 0 0 16,29 13,13 0 0 0 29,16 13,13 0 0 0 16,3 Z M 9,7.484375 a 1.5,1.5 0 0 1 1.076172,0.4550781 l 5.943359,5.9433589 5.941406,-5.9433589 a 1.5,1.5 0 0 1 1.076172,-0.4550781 1.5,1.5 0 0 1 1.044922,2.576172 l -5.941406,5.943359 5.935547,5.935547 a 1.5,1.5 0 1 1 -2.121094,2.121094 L 16.003906,18.125 l -5.9375,5.935547 A 1.5,1.5 0 1 1 7.9453125,21.939453 L 13.882812,16 7.9,10.060547 A 1.5,1.5 0 0 1 9,7.484375 Z"
     />
</svg>
